X:45
T:Piper
M:9/8
L:1/8
K:C
TB2G GBG dBG|(B/c/d)B gdB deg|TB>AG GBG dBG|(A/B/c)A fcA c2e:|
TB2d gdB gdB|TB2d     gdB deg|TB2d  gdB gdB|(A/B/c)A fcA c2e:|

% @@@@@@@@@@@@@@@@@@@@@@@@@@@@@@@@@@

%% 46. ===============================================================================

% @ECCLES'S@
% &Rant.&
%
% *TURN round your Partner, and cast off the first Couple.  Lead down the 2d Couple,
% and cast up.  *Four hands round with the upper Couple, then Right and Left.

% @@@@@@@@@@@@@@@@@@@@@@@@@@@@@@@@@@

